X:171
T:We're a' Kiss'd Sleeping. Ru2.171
%%VWML:RutherfordVol2-2249-p86-0
F:http://www.vwml.org/record/RutherfordVol2/2249/p86
Z:vmp.Ruairidh Greig 2015 www.village-music-project.org.uk
M:C|
L:1/8
Q:1/4=140
K:G
BA|G4D4|=F2A4BA|G4D4|G2g4de|
=f2ef gfed|cBAG=F2e^f|g2fe dcBA|G2B4:|
|:ba|g4d2e2|=fefg fgab|g4d2ef|gfedg2de|
=f2ef gfed|cBAG=F2e^f|g2fe dcBA|G2B4:||
W:The first Man turns ye 2d. Wo. with his right Hand & his Part.
W:with his Left hand .| the first Wo. turns ye 2d. man with
W:her right Hand & her Partner with her Left Hand :|
W:Cross over two Cu. foot it & turn your Partner .|. Cast
W:up to the Top Lead down one Cu. & turn your Partner :|
T:Crooked Horn'd Ewe. Ru2.172, The
B:RUTHERFORD Complete Collection of 200 Country Dances Vol.2; 1759.
Z:vmp.Ruairidh Greig 2015 www.village-music-project.org.uk
M:C
L:1/8
N: The Segno is of mysterious intent
Q:1/4=140
K:G
DG2B AG "tr"FE/D/|DG2B cABG|ABcB AG "tr"FE/D/|DG2B AG/F/G2:|
|:dg2a =fa"tr"gf|dg2a fag2|dg2a "tr"b(a/g/) a(g/f/)|
d(g/a/) _b(a/g/) (f/g/a/f/) g2|(=fef)d c_B "tr"A(G/F/)|Gd2c BAG2":S:":|
W:The first Cu. Lead thro the 2d. Cu. & cross over into ye.
W:3d. Cus. Place .| The 2d. Cu. does the same :| the 3d.
W:Cu. casts off into their own Place then the 3 Men
W:turns their Partners & the first Cu. cross over two
W:Cu. .|. Lead up to the Top foot it & cast off Lead
W:thro ye. 3d. Cu. cast up into ye. 2d. Cus. Place & turn
W:your Partner :|
